!!!COM: Samarakone, Ananda
!!!CDT: 1911-1962
!!!OTL: National Anthem, Sri Lanka
!!!ENC: Davis, Matthew J.
!!Vocal Line Only
**kern
*clefG2
*k[b-e-a-]
*E-:
*M4/4
=1-
1r
=2
1r
=3
4g
4g
4f
8d
8f
=4
2.e-
8e-
8d
=5
8e-
8f
8g
8f
8g
8a-
8b-
8cc
=6
4.b-
8ee-
4.dd
8cc
=7
4.b-
8a-
4.g
8g
=8
4f
8d
8f
4e-
4r
==9
8B-
8e-
8e-
8e-
8e-
8e-
8d
8e-
=10
4.f
8f
8f
8g
8f
8g
=11
8a-
8b-
8b-
8b-
8b-
8b-
8an
8cc
=12
[2b-
4.b-
8r
=13
8cc
8ee-
8ee-
8b-
8cc
8cc
8a-
8a-
=14
4b-
8g
8g
8a-
8a-
8f
8f
=15
8a-
8a-
4g
8f
8f
8d
8f
=16
2.e-
4r
=17
8e-
8e-
8f
8f
8g
8g
8a-
8a-
=18
8b-
8b-
8an
8cc
2b-
=19
8f
8f
8g
8g
4a-
8b-
8an
=20
[2b-
4.b-]
8r
=21
8cc
8cc
8dd
8dd
8ee-
8ee-
8ff
8ff
=22
4dd
4ee-
4cc
4b-
=23
8b-
4b-
8a-
4f
8d
8f
=24
2.e-
8e-
8d
=25
8e-
8f
8g
8f
8g
8a-
8b-
8cc
=26
4.b-
8ee-
4.dd
8cc
=27
4.b-
8a-
4.g
8g
=28
4f
8d
8f
4e-
8e-
8d
=29
8e-
8f
8g
8f
8g
8a-
8b-
8cc
=30
4.b-
8ee-
4.dd
8cc
=31
4.b-
8a-
4.g
8g
=32
4f
8d
8f
[2e-
=33
4e-]
4r
2r
==|!
*-
